!!!OTL: Huanle shengchan
!!!ARE: Asia, China, Shanxi Xiyang
!! I, 280
!!!SCT: C2091
!!!YEM: Copyright 1995, estate of Helmut Schaffrath.
**kern
*ICvox
*Ivox
*M2/4
*k[b-e-]
*B-:
{4ccc
4fff
=1
16fff
16ggg
16fff
16ddd
4ccc
=2
4ccc
4fff
=3
16fff
16ggg
16fff
16ddd
4ccc}
=4
{8.ccc
16ddd
8ccc
8bb-
=5
8gg
8ccc
8aa
8gg
=6
8ff
8gg
8ff
8cc
=7
2ff}
=8
{8.bb-
16aa
8gg
8bb-
=9
8.bb-
16aa
8gg
8bb-
=10
8ccc
8r
8fff
8r
=11
16fff
16ggg
16fff
16ddd
4ccc}
=12
{8ccc
8ddd
8ccc
8bb-
=13
8gg
8ccc
8aa
8gg
=14
8ff
8gg
8ff
8cc
=15
2ff}
==
!!!AGN: Xiaodiao
!! Han
!!!ONB: ESAC (Essen Associative Code) Database: SENGANSU
!!!AMT: simple duple
!!!AIN: vox
!!!EED: Helmut Schaffrath
!!!EEV: 1.0
*-
